X: 1
T: Cuckoo Is A Pretty Bird, The
M: 4/4
L: 1/8
R: reel
K: Ador
A2B2 | c3c d2c2 | B4 G2A2 | B3B c2B2 | A4 E2G2 |
A3A B2c2 | B4 A2B2 | c3d e2f2 | g4 e2g2 |  
a3a g2e2 | d4 B2c2 | d3d B2A2 | G4 A2B2 |
c3c d2c2 | B4 G2A2 | B3B c2B2 | A4 :|
